public/background/stats.svg

<svg xmlns="http://www.w3.org/2000/svg" width="1512" height="1152" fill="none" preserveAspectRatio="none"><g clip-path="url(#a)"><path fill="#fff" d="M0-2195h1512v9633H0z"/><path fill="url(#b)" d="M0 0h1512v2247H0z" transform="translate(0 -1091)"/><path fill="url(#c)" fill-rule="evenodd" d="M750.399-596.427 494.766 17.979l.923.384 254.526-611.744-120.08 651.207.983.181L751.352-594.03V69h1v-662.523L874.809 57.288l.983-.185-122.839-652.839 245.936 617.99.929-.369L753.68-596.613l.059.059 366.001 554.84.84-.551-363.321-550.769L1224.27-126.02l.71-.707-470.462-470.462-.679-1.029.131.024 560.73 359.185.54-.842-558.568-357.8 616.848 243.966.36-.93-612.461-242.234 647.851 117.018.17-.984-652.359-117.833H1420v-1H755.691L1410.9-711.536l-.17-.986-653.758 111.64 621.188-232.339-.35-.937L756.119-601.63l559.521-357.088-.54-.843-558.275 356.294 468.155-468.153-.71-.71-470.183 470.187L1123.8-1154.97l-.83-.56-367.72 550.048 254.04-610.568-.92-.39-255.466 613.994 120.665-654.384-.983-.18-120.234 652.043V-1268h-1v663.754L628.559-1256.84l-.982.19 122.48 650.934-244.604-614.644-.929.37 244.591 614.61-364.746-552.94-.835.56L750.34-601.707l-.946-.606-469.816-469.817-.707.71L745.46-604.833 189.411-961.021l-.539.842 558.566 357.801-616.845-243.967-.368.93 619.78 245.128.441.44L93.734-718.466l-.178.984L745.92-599.648H83v1h660.895L92.807-487.464l.168.986 653.754-111.64-621.19 232.339.35.937 621.698-232.529-559.521 357.089.538.843 561.033-358.054-470.766 470.766.707.707 468.028-468.029-367.7 550.02.832.556z" clip-rule="evenodd"/><g filter="url(#d)"><path fill="#0DAEF1" d="M1428.1 144.741c-34.19-70.7-83.69-91.3-150.22-87.74a4.97 4.97 0 0 0-4.2 2.813l-111.73 232.923c-1.74 3.617 1.31 8.024 5.32 8.043 13.89.066 42.42 2.819 80.41 20.11 54.73 24.909 69.1 54.441 69.1 54.441z"/><path fill="#0DAEF1" d="M1567.67 224.15c-27.03-46.002-62.82-76.524-146.66-64.172l-104.22 215.29s26.67-9.472 77.19 15.437c34.69 17.108 53.5 39.843 61.88 52.405 2.37 3.549 8.25 3.385 10.05-.482z"/><path fill="#F8F8F8" d="M1420.65 126.927c-29.82-63.85-74.02-81.392-133.92-76.853l-106.41 213.981s29.28-13.539 79.8 11.37 60.3 58.929 60.3 58.929z"/><path fill="#fff" d="M1575.55 194.405c-29.24-47.103-67.27-78.748-154.54-68.106l-100.73 208.058s30.8-13.101 84.1 13.194c53.29 26.295 64.26 60.904 64.26 60.904z"/><path fill="#F8F8F8" d="M1457.13 436.312s2.8-7.367 11.22-27.715-89.46-97.881-148.05-74.376c-1.38.553 0 33.68 0 33.68s27.02-12.279 75.08 9.472c48.06 21.752 61.75 58.939 61.75 58.939"/><path fill="#E2E2E2" d="M1320.3 367.901s.35-6.644.35-33.658-85.95-91.982-140.33-70.166c-1.38.554 0 29.799 0 29.799s27.01-8.398 75.08 13.353c48.06 21.752 64.9 60.672 64.9 60.672"/><path fill="#0DAEF1" d="M106.101 693.954c48.932-101.203 119.885-130.377 215.33-124.98a4.99 4.99 0 0 1 4.209 2.818l161.508 336.701c1.735 3.618-1.301 7.971-5.312 7.881-17.933-.402-60.501 2.18-118.607 28.626-78 35.5-98.482 77.59-98.482 77.59z"/><path fill="#0DAEF1" d="M-92.823 807.126c38.528-65.561 89.53-109.061 209.029-91.457L264.729 1022.5s-38.001-13.5-110.001 22c-53.286 26.27-80.281 61.86-90.714 78.58-2.258 3.62-8.06 3.46-9.86-.4z"/><path fill="#F8F8F8" d="M116.707 668.566c42.501-91 105.501-116 190.866-109.532L459.229 864s-41.732-19.295-113.732 16.205-85.945 83.985-85.945 83.985z"/><path fill="#fff" d="M-104.05 764.735c41.669-67.131 95.876-112.232 220.255-97.065l143.547 296.523s-43.892-18.671-119.848 18.805c-75.955 37.472-91.582 86.802-91.582 86.802z"/><path fill="#F8F8F8" d="M64.728 1109.5s-4-10.5-16-39.5 127.5-139.5 211-106c1.965.788 0 48 0 48s-38.5-17.5-107 13.5-88 84-88 84"/><path fill="#E2E2E2" d="M259.729 1012s-.5-9.47-.5-47.969 122.5-131.092 199.999-100c1.966.789 0 42.469 0 42.469s-38.499-11.968-106.999 19.032-92.5 86.468-92.5 86.468"/></g><path fill="#225C90" d="M0 1151h1512v856H0z"/></g><defs><radialGradient id="c" cx="0" cy="0" r="1" gradientTransform="rotate(26.256 1660.998 1311.366)scale(573.436)" gradientUnits="userSpaceOnUse"><stop stop-color="#fff"/><stop offset="1" stop-color="#fff" stop-opacity="0"/></radialGradient><linearGradient id="b" x1="756" x2="756" y1="0" y2="2187.92" gradientUnits="userSpaceOnUse"><stop stop-color="#225C90"/><stop offset=".453" stop-color="#BAE8FC" stop-opacity=".5"/></linearGradient><clipPath id="a"><path fill="#fff" d="M0-2195h1512v9633H0z"/></clipPath><filter id="d" width="1722.79" height="1128.69" x="-120.051" y="13" color-interpolation-filters="sRGB" filterUnits="userSpaceOnUse"><feFlood flood-opacity="0" result="BackgroundImageFix"/><feBlend in="SourceGraphic" in2="BackgroundImageFix" result="shape"/><feGaussianBlur result="effect1_foregroundBlur_1511_119" stdDeviation="8"/></filter></defs></svg>

<svg width="1512" height="1152" preserveAspectRatio="none" viewBox="0 0 1512 1152" fill="none" xmlns="http://www.w3.org/2000/svg">
    <g clip-path="url(#clip0_1511_119)">
        <rect width="1512" height="9633" transform="translate(0 -2195)" fill="white"/>
        <rect width="1512" height="2247" transform="translate(0 -1091)" fill="url(#paint0_linear_1511_119)"/>
        <path fill-rule="evenodd" clip-rule="evenodd" d="M750.399 -596.427L494.766 17.9785L495.689 18.3625L750.215 -593.381L630.135 57.8259L631.118 58.0073L751.352 -594.03V69H752.352V-593.523L874.809 57.2882L875.792 57.1034L752.953 -595.736L998.889 22.2549L999.818 21.8851L753.68 -596.613L753.739 -596.554L1119.74 -41.7145L1120.58 -42.265L757.259 -593.034L1224.27 -126.02L1224.98 -126.727L754.518 -597.189L753.839 -598.218L753.97 -598.194L1314.7 -239.009L1315.24 -239.851L756.672 -597.651L1373.52 -353.685L1373.88 -354.615L761.419 -596.849L1409.27 -479.831L1409.44 -480.815L757.081 -598.648H1420V-599.648H755.691L1410.9 -711.536L1410.73 -712.522L756.972 -600.882L1378.16 -833.221L1377.81 -834.158L756.119 -601.63L1315.64 -958.718L1315.1 -959.561L756.825 -603.267L1224.98 -1071.42L1224.27 -1072.13L754.087 -601.943L1123.8 -1154.97L1122.97 -1155.53L755.25 -605.482L1009.29 -1216.05L1008.37 -1216.44L752.904 -602.446L873.569 -1256.83L872.586 -1257.01L752.352 -604.967V-1268H751.352V-604.246L628.559 -1256.84L627.577 -1256.65L750.057 -605.716L505.453 -1220.36L504.524 -1219.99L749.115 -605.38L384.369 -1158.32L383.534 -1157.76L750.34 -601.707L749.394 -602.313L279.578 -1072.13L278.871 -1071.42L745.46 -604.833L189.411 -961.021L188.872 -960.179L747.438 -602.378L130.593 -846.345L130.225 -845.415L750.005 -600.287L750.446 -599.847L93.7341 -718.466L93.5564 -717.482L745.919 -599.648H83V-598.648H743.895L92.8067 -487.464L92.975 -486.478L746.729 -598.118L125.539 -365.779L125.889 -364.842L747.587 -597.371L188.066 -240.282L188.604 -239.439L749.637 -597.493L278.871 -126.727L279.578 -126.02L747.606 -594.049L379.906 -44.0284L380.738 -43.4727L750.399 -596.427Z" fill="url(#paint1_radial_1511_119)"/>
        <g filter="url(#filter0_f_1511_119)">
            <path d="M1428.1 144.741C1393.91 74.0409 1344.41 53.4404 1277.88 57.0001C1276.08 57.0968 1274.46 58.1824 1273.68 59.8137L1161.95 292.737C1160.21 296.354 1163.26 300.761 1167.27 300.78C1181.16 300.846 1209.69 303.599 1247.68 320.89C1302.41 345.799 1316.78 375.331 1316.78 375.331L1428.1 144.741Z" fill="#0DAEF1"/>
            <path d="M1567.67 224.15C1540.64 178.148 1504.85 147.626 1421.01 159.978L1316.79 375.268C1316.79 375.268 1343.46 365.796 1393.98 390.705C1428.67 407.813 1447.48 430.548 1455.86 443.11C1458.23 446.659 1464.11 446.495 1465.91 442.628L1567.67 224.15Z" fill="#0DAEF1"/>
            <path d="M1420.65 126.927C1390.83 63.0765 1346.63 45.5353 1286.73 50.0736L1180.32 264.055C1180.32 264.055 1209.6 250.516 1260.12 275.425C1310.64 300.334 1320.42 334.354 1320.42 334.354L1420.65 126.927Z" fill="#F8F8F8"/>
            <path d="M1575.55 194.405C1546.31 147.302 1508.28 115.657 1421.01 126.299L1320.28 334.357C1320.28 334.357 1351.08 321.256 1404.38 347.551C1457.67 373.846 1468.64 408.455 1468.64 408.455L1575.55 194.405Z" fill="white"/>
            <path d="M1457.13 436.312C1457.13 436.312 1459.93 428.945 1468.35 408.597C1476.77 388.249 1378.89 310.716 1320.3 334.221C1318.92 334.774 1320.3 367.901 1320.3 367.901C1320.3 367.901 1347.32 355.622 1395.38 377.373C1443.44 399.125 1457.13 436.312 1457.13 436.312Z" fill="#F8F8F8"/>
            <path d="M1320.3 367.901C1320.3 367.901 1320.65 361.257 1320.65 334.243C1320.65 307.229 1234.7 242.261 1180.32 264.077C1178.94 264.631 1180.32 293.876 1180.32 293.876C1180.32 293.876 1207.33 285.478 1255.4 307.229C1303.46 328.981 1320.3 367.901 1320.3 367.901Z" fill="#E2E2E2"/>
            <path d="M106.101 693.954C155.033 592.751 225.986 563.577 321.431 568.974C323.238 569.076 324.857 570.161 325.64 571.792L487.148 908.493C488.883 912.111 485.847 916.464 481.836 916.374C463.903 915.972 421.335 918.554 363.229 945C285.229 980.5 264.747 1022.59 264.747 1022.59L106.101 693.954Z" fill="#0DAEF1"/>
            <path d="M-92.8226 807.126C-54.295 741.565 -3.29362 698.065 116.206 715.669L264.729 1022.5C264.729 1022.5 226.728 1009 154.728 1044.5C101.442 1070.77 74.447 1106.36 64.0137 1123.08C61.7557 1126.7 55.9543 1126.54 54.1532 1122.68L-92.8226 807.126Z" fill="#0DAEF1"/>
            <path d="M116.707 668.566C159.208 577.566 222.208 552.566 307.573 559.034L459.229 864C459.229 864 417.497 844.705 345.497 880.205C273.497 915.705 259.552 964.19 259.552 964.19L116.707 668.566Z" fill="#F8F8F8"/>
            <path d="M-104.05 764.735C-62.3812 697.604 -8.17413 652.503 116.205 667.67L259.752 964.193C259.752 964.193 215.86 945.522 139.904 982.998C63.9491 1020.47 48.322 1069.8 48.322 1069.8L-104.05 764.735Z" fill="white"/>
            <path d="M64.7279 1109.5C64.7279 1109.5 60.7287 1099 48.7285 1070C36.7283 1041 176.228 930.5 259.728 964C261.693 964.788 259.728 1012 259.728 1012C259.728 1012 221.228 994.5 152.728 1025.5C84.2277 1056.5 64.7279 1109.5 64.7279 1109.5Z" fill="#F8F8F8"/>
            <path d="M259.729 1012C259.729 1012 259.229 1002.53 259.229 964.031C259.229 925.531 381.729 832.939 459.228 864.031C461.194 864.82 459.228 906.5 459.228 906.5C459.228 906.5 420.729 894.532 352.229 925.532C283.729 956.532 259.729 1012 259.729 1012Z" fill="#E2E2E2"/>
        </g>
        <rect width="1512" height="856" transform="translate(0 1151)" fill="#225C90"/>
    </g>
    <defs>
        <filter id="filter0_f_1511_119" x="-120.051" y="13" width="1722.79" height="1128.69" filterUnits="userSpaceOnUse" color-interpolation-filters="sRGB">
            <feFlood flood-opacity="0" result="BackgroundImageFix"/>
            <feBlend mode="normal" in="SourceGraphic" in2="BackgroundImageFix" result="shape"/>
            <feGaussianBlur stdDeviation="8" result="effect1_foregroundBlur_1511_119"/>
        </filter>
        <linearGradient id="paint0_linear_1511_119" x1="756" y1="0" x2="756" y2="2187.92" gradientUnits="userSpaceOnUse">
            <stop stop-color="#225C90"/>
            <stop offset="0.452804" stop-color="#BAE8FC" stop-opacity="0.5"/>
        </linearGradient>
        <radialGradient id="paint1_radial_1511_119" cx="0" cy="0" r="1" gradientUnits="userSpaceOnUse" gradientTransform="translate(751.5 -599.5) rotate(26.2561) scale(573.436)">
            <stop stop-color="white"/>
            <stop offset="1" stop-color="white" stop-opacity="0"/>
        </radialGradient>
        <clipPath id="clip0_1511_119">
            <rect width="1512" height="9633" fill="white" transform="translate(0 -2195)"/>
        </clipPath>
    </defs>
</svg>
